resources/svg/major-add-product.svg

<svg xmlns="http://www.w3.org/2000/svg" viewBox="0 0 20 20" fill="currentColor"><path d="M11 1H17C18.1046 1 19 1.89543 19 3V9C19 9.33853 19 10 17.5 10H16C12.6863 10 10 12.6863 10 16V18C10 19.17 9.09077 19.2143 7.99998 18.8296C7.59053 18.6852 7.20617 18.4493 6.87868 18.1218L1.87868 13.1218C0.707107 11.9502 0.707107 10.0507 1.87868 8.87913L8.87868 1.87913C9.46447 1.29335 10.2322 1 11 1ZM14 8C15.1046 8 16 7.10457 16 6C16 4.89543 15.1046 4 14 4C12.8954 4 12 4.89543 12 6C12 7.10457 12.8954 8 14 8ZM19 15C19.2652 15 19.5196 15.1054 19.7071 15.2929C19.8946 15.4804 20 15.7348 20 16C20 16.2652 19.8946 16.5196 19.7071 16.7071C19.5196 16.8946 19.2652 17 19 17H17V19C17 19.2652 16.8946 19.5196 16.7071 19.7071C16.5196 19.8946 16.2652 20 16 20C15.7348 20 15.4804 19.8946 15.2929 19.7071C15.1054 19.5196 15 19.2652 15 19V17H13C12.7348 17 12.4804 16.8946 12.2929 16.7071C12.1054 16.5196 12 16.2652 12 16C12 15.7348 12.1054 15.4804 12.2929 15.2929C12.4804 15.1054 12.7348 15 13 15H15V13C15 12.7348 15.1054 12.4804 15.2929 12.2929C15.4804 12.1054 15.7348 12 16 12C16.2652 12 16.5196 12.1054 16.7071 12.2929C16.8946 12.4804 17 12.7348 17 13V15H19Z" fill="#5C5F62"/></svg>

<svg xmlns="http://www.w3.org/2000/svg" viewBox="0 0 20 20" fill="currentColor"><path d="M11 1h6a2 2 0 0 1 2 2v6c0 .339 0 1-1.5 1h-1.5a6 6 0 0 0-6 6v2c0 1.17-.91 1.214-2 .83a2.988 2.988 0 0 1-1.121-.708l-5-5a3 3 0 0 1 0-4.243l7-7a2.991 2.991 0 0 1 2.121-.879Zm3 7a2 2 0 1 0 0-4 2 2 0 0 0 0 4Zm5 7a1 1 0 0 1 0 2h-2v2a1 1 0 0 1-2 0v-2h-2a1 1 0 0 1 0-2h2v-2a1 1 0 0 1 2 0v2h2Z"/></svg>
